X:5
T:Morgiana In Ireland. CAM2.[05]
B:Anon MS#2, early 19thC, Northumbria, Cocks Coll.
Z:Village Music Project 2016 Steve Mansfield
M:6/8
L:1/8
Q:3/8=110
K:G
D2D G2G | AGA B3 | D2D G2A | B2c BGE |
D2D G2G | AGA B2e | edc BcB | G2A BGE :|
|: d2d dcB | e2f g3 | ded dcB | e2f gdB |
d2d dcB | efe efg | dec BcA | G2A BGE |
GFG B<dz | AGA c<ez | GFG G2A | B2c BGE |
GFG B<dz | c<ez B<dz | e<gz B<dz | G2A BGE :|

